build/img/icon-user.svg

<svg width="12" height="15" viewBox="0 0 12 15" fill="none" xmlns="http://www.w3.org/2000/svg">
<path fill-rule="evenodd" clip-rule="evenodd" d="M6 7.76125C7.84152 7.76125 9.33333 6.22156 9.33333 4.32093C9.33333 2.42031 7.84152 0.880615 6 0.880615C4.15848 0.880615 2.66667 2.42031 2.66667 4.32093C2.66667 6.22156 4.15848 7.76125 6 7.76125ZM5.99992 2.25677C7.10506 2.25677 7.99992 3.18035 7.99992 4.32096C7.99992 5.46158 7.10506 6.38515 5.99992 6.38515C4.89478 6.38515 3.99992 5.46158 3.99992 4.32096C3.99992 3.18035 4.89478 2.25677 5.99992 2.25677ZM12 13.9539C12 14.3339 11.7015 14.642 11.3333 14.642C10.9651 14.642 10.6667 14.3339 10.6667 13.9539V12.5778C10.6667 11.5731 8.104 10.5136 6 10.5136C3.896 10.5136 1.33333 11.5731 1.33333 12.5778C1.33333 12.578 1.33333 12.5782 1.33333 12.5785V13.9539C1.33333 14.3339 1.03486 14.642 0.666666 14.642C0.298476 14.642 0 14.3339 0 13.9539V12.5778C0 10.4691 3.22065 9.13745 6 9.13745C8.77935 9.13745 12 10.4691 12 12.5778V13.9539Z" fill="#9B8869"/>
</svg>

<svg width="12" height="15" fill="none" xmlns="http://www.w3.org/2000/svg"><path fill-rule="evenodd" clip-rule="evenodd" d="M6 7.761c1.842 0 3.333-1.54 3.333-3.44S7.842.88 6 .88 2.667 2.42 2.667 4.32 4.158 7.76 6 7.76zm0-5.504c1.105 0 2 .923 2 2.064 0 1.14-.895 2.064-2 2.064s-2-.923-2-2.064c0-1.14.895-2.064 2-2.064zm6 11.697c0 .38-.299.688-.667.688a.678.678 0 01-.666-.688v-1.376c0-1.005-2.563-2.064-4.667-2.064-2.104 0-4.667 1.06-4.667 2.064v1.376c0 .38-.298.688-.666.688A.678.678 0 010 13.954v-1.376c0-2.109 3.22-3.44 6-3.44s6 1.331 6 3.44v1.376z" fill="#9B8869"/></svg>
